packages/match-icons/product/svg/conversations.svg

<svg fill="none" height="32" viewBox="0 0 32 32" width="32" xmlns="http://www.w3.org/2000/svg" xmlns:xlink="http://www.w3.org/1999/xlink"><clipPath id="a"><path d="m0 0h32v32h-32z"/></clipPath><g clip-path="url(#a)"><path d="m7.77 32.0899c-.26545.0055-.52869-.0492-.77-.16-.3029-.1422-.55833-.3689-.7357-.6526-.17736-.2838-.26913-.6127-.2643-.9474v-4.33h-3.5c-.66304 0-1.29893-.2634-1.767767-.7322-.468841-.4688-.732233-1.1047-.732233-1.7678v-14.99996c0-.66304.263392-1.29892.732233-1.76777.468837-.46884 1.104727-.73223 1.767767-.73223h5.5c1.49657-.01329 2.9629.42147 4.2103 1.24836 1.2475.82689 2.219 2.00808 2.7897 3.3916l3.87 9.91c.4199 1.0167 1.1308 1.8866 2.0435 2.5004.9128.6138 1.9866.9442 3.0865.9496h5.5c.1326 0 .2598-.0526.3536-.1464.0937-.0938.1464-.221.1464-.3536v-14.99996c0-.13261-.0527-.25978-.1464-.35355-.0938-.09377-.221-.14645-.3536-.14645h-5.5v-5.78l-6.34 5.53c-.2007.16163-.456.23956-.7127.21755-.2567-.02202-.4951-.14228-.6653-.33572-.1702-.19343-.2592-.44511-.2484-.70255.0108-.25745.1206-.50078.3064-.67928l6.75-5.909999c.2536-.224572.567-.3707035.902-.4206602.3351-.0499568.6775-.0015912.9856.1392274.3081.1408188.5687.3680358.7502.6540788s.276.618613.2722.957353v4.33h3.5c.663 0 1.2989.26339 1.7678.73223.4688.46885.7322 1.10473.7322 1.76777v14.99996c0 .6631-.2634 1.299-.7322 1.7678-.4689.4688-1.1048.7322-1.7678.7322h-5.5c-1.5004-.0049-2.9658-.4538-4.2115-1.2902s-2.216-2.0228-2.7885-3.4098l-3.86-9.91c-.4181-1.003-1.1235-1.85998-2.0274-2.46317s-1.96592-.92564-3.0526-.92679h-5.56c-.13261 0-.25979.05268-.35355.14645-.09377.09377-.14645.22094-.14645.35355v14.99996c0 .1326.05268.2598.14645.3536.09376.0938.22094.1464.35355.1464h5.55v5.78l6.33-5.53c.0974-.0935.2126-.1663.3389-.2141.1263-.0477.2609-.0694.3958-.0638.1348.0057.2672.0386.389.0968.1218.0581.2306.1404.3197.2417.0892.1014.157.2197.1992.3479s.058.2637.0465.3982c-.0116.1345-.0502.2653-.1136.3844-.0635.1192-.1504.2243-.2555.3089l-6.79 5.91c-.31669.2745-.72092.427-1.14.43z" fill="#394762"/></g></svg>

<svg width="32" height="32" viewBox="0 0 32 32" fill="none" xmlns="http://www.w3.org/2000/svg">
<g clip-path="url(#clip0)">
<path d="M7.77 32.0899C7.50455 32.0954 7.24131 32.0407 7 31.9299C6.6971 31.7877 6.44167 31.561 6.2643 31.2773C6.08694 30.9935 5.99517 30.6646 6 30.3299V25.9999H2.5C1.83696 25.9999 1.20107 25.7365 0.732233 25.2677C0.263392 24.7989 0 24.163 0 23.4999L0 8.49994C0 7.8369 0.263392 7.20102 0.732233 6.73217C1.20107 6.26333 1.83696 5.99994 2.5 5.99994H8C9.49657 5.98665 10.9629 6.42141 12.2103 7.2483C13.4578 8.07519 14.4293 9.25638 15 10.6399L18.87 20.5499C19.2899 21.5666 20.0008 22.4365 20.9135 23.0503C21.8263 23.6641 22.9001 23.9945 24 23.9999H29.5C29.6326 23.9999 29.7598 23.9473 29.8536 23.8535C29.9473 23.7597 30 23.6325 30 23.4999V8.49994C30 8.36733 29.9473 8.24016 29.8536 8.14639C29.7598 8.05262 29.6326 7.99994 29.5 7.99994H24V2.21994L17.66 7.74994C17.4593 7.91157 17.204 7.9895 16.9473 7.96749C16.6906 7.94547 16.4522 7.82521 16.282 7.63177C16.1118 7.43834 16.0228 7.18666 16.0336 6.92922C16.0444 6.67177 16.1542 6.42844 16.34 6.24994L23.09 0.339941C23.3436 0.115369 23.657 -0.0307625 23.992 -0.0807192C24.3271 -0.130676 24.6695 -0.0823104 24.9776 0.0585082C25.2857 0.199327 25.5463 0.426544 25.7278 0.712587C25.9093 0.99863 26.0038 1.3312 26 1.66994V5.99994H29.5C30.163 5.99994 30.7989 6.26333 31.2678 6.73217C31.7366 7.20102 32 7.8369 32 8.49994V23.4999C32 24.163 31.7366 24.7989 31.2678 25.2677C30.7989 25.7365 30.163 25.9999 29.5 25.9999H24C22.4996 25.995 21.0342 25.5461 19.7885 24.7097C18.5428 23.8733 17.5725 22.6869 17 21.2999L13.14 11.3899C12.7219 10.3869 12.0165 9.52992 11.1126 8.92673C10.2087 8.32354 9.14668 8.00109 8.06 7.99994H2.5C2.36739 7.99994 2.24021 8.05262 2.14645 8.14639C2.05268 8.24016 2 8.36733 2 8.49994V23.4999C2 23.6325 2.05268 23.7597 2.14645 23.8535C2.24021 23.9473 2.36739 23.9999 2.5 23.9999H8.05V29.7799L14.38 24.2499C14.4774 24.1564 14.5926 24.0836 14.7189 24.0358C14.8452 23.9881 14.9798 23.9664 15.1147 23.972C15.2495 23.9777 15.3819 24.0106 15.5037 24.0688C15.6255 24.1269 15.7343 24.2092 15.8234 24.3105C15.9126 24.4119 15.9804 24.5302 16.0226 24.6584C16.0648 24.7866 16.0806 24.9221 16.0691 25.0566C16.0575 25.1911 16.0189 25.3219 15.9555 25.441C15.892 25.5602 15.8051 25.6653 15.7 25.7499L8.91 31.6599C8.59331 31.9344 8.18908 32.0869 7.77 32.0899V32.0899Z" fill="#394762"/>
</g>
<defs>
<clipPath id="clip0">
<rect width="32" height="32" fill="white"/>
</clipPath>
</defs>
</svg>
